chrome/urlbar/permissions.svg

<svg xmlns="http://www.w3.org/2000/svg" width="16" height="16" viewBox="0 0 16 16">
   <path
   style="fill:context-fill;fill-opacity:context-fill-opacity"
   d="M 4 2 C 2.3490681 2 1 3.3490681 1 5 C 1 6.6509319 2.3490681 8 4 8 C 5.6509319 8 7 6.6509319 7 5 C 7 3.3490681 5.6509319 2 4 2 z M 4 3 C 5.1104918 3 6 3.8895082 6 5 C 6 6.1104918 5.1104918 7 4 7 C 2.8895082 7 2 6.1104918 2 5 C 2 3.8895082 2.8895082 3 4 3 z M 8 4 C 7.989565 4.0003246 7.979144 4.0009791 7.96875 4.0019531 C 7.9895224 4.1671596 7.9999594 4.3334958 8 4.5 C 7.9999594 4.6665042 7.9895224 4.8328435 7.96875 4.9980469 C 7.9791437 4.999024 7.9895655 4.9996754 8 5 L 14.5 5 C 14.776142 5 15 4.7761424 15 4.5 C 15 4.2238576 14.776142 4 14.5 4 L 8 4 z M 12 8 C 10.349068 8 9 9.3490681 9 11 C 9 12.650932 10.349068 14 12 14 C 13.650932 14 15 12.650932 15 11 C 15 9.3490681 13.650932 8 12 8 z M 12 9 C 13.110492 9 14 9.8895082 14 11 C 14 12.110492 13.110492 13 12 13 C 10.889508 13 10 12.110492 10 11 C 10 9.8895082 10.889508 9 12 9 z M 1.5 11 C 1.2238675 11.000001 1 11.223858 1 11.5 C 1 11.776142 1.2238675 12.000001 1.5 12 L 8 12 C 8.010434 11.9996 8.020857 11.999024 8.03125 11.998047 C 8.010478 11.832844 8.0000406 11.666504 8 11.5 C 8.000043 11.333512 8.01048 11.167141 8.03125 11.001953 C 8.020857 11.000953 8.010435 11.00034 8 11 L 1.5 11 z " />
</svg>

<svg xmlns="http://www.w3.org/2000/svg" width="16" height="16">
  <path style="fill:context-fill;fill-opacity:context-fill-opacity" d="M4 2C2.35 2 1 3.35 1 5s1.35 3 3 3 3-1.35 3-3-1.35-3-3-3zm0 1c1.11 0 2 .89 2 2 0 1.11-.89 2-2 2-1.11 0-2-.89-2-2 0-1.11.89-2 2-2zm4 1-.031.002a4 4 0 0 1 0 .996A.5.5 0 0 0 8 5h6.5a.5.5 0 0 0 0-1H8zm4 4c-1.65 0-3 1.35-3 3s1.35 3 3 3 3-1.35 3-3-1.35-3-3-3zm0 1c1.11 0 2 .89 2 2 0 1.11-.89 2-2 2-1.11 0-2-.89-2-2 0-1.11.89-2 2-2zM1.5 11a.5.5 0 0 0 0 1H8l.031-.002a4 4 0 0 1 0-.996A.494.494 0 0 0 8 11H1.5z"/>
</svg>
